X: 4
T: The Fairy Dance
R: reel
M: 4/4
L: 1/8
K: Dmaj
g |: fAdg fAdg | fAde cdeg | fAdf gfed |1 cABc d4 :|2 cAbc defg ||a2 ag b>bba | geee aaag | fadf gfed |1 cABc defg :|2 cAbc d4 ||


Tune 424	Setting 13283

